X:260
T:The reel of Mullinavat
R:Reel
O:Ireland
B:O'Neill's 1316
B:Ceol Rince 3 n153
S:Richard Darsie's web page
Z:Transcription, chords:Mike Long
M:C|
L:1/8
K:G
ef|\
"Em"gfed edBA|"G"GBAG "Em"E2B,E|"Em"GEB,E GABd|"D"eBBA Beef|\
"Em"gfed edBc|
"D"BAGF "Em"E3F|"G"G2GF GABA|"D"Beed "Em"e2:|\
|:ef|\
"Em"feBe gabg|"D"afdf afdf|
"Em"geBe "G"gabg|"D"afdf "Em"geef|\
"Em"geBe gabg|"D"afde faa2|"C/G"bgaf gefd|"D"Bgfd "Em"e2:|
